X:0083
T:Miss Katie Hall's Reel.
M:6/8
L:1/8
Q:3/8=104
I: :: ::
Z:Jack Campin * www.campin.me.uk * 2009
K:D Mixolydian % hexatonic
d2B AFA|AFA Afe|d2B AFD|EFE efe |
d2B AFA|AFA AGF|GAB AGF|EFE efe:|
def fgf|def f2e|def fgf|efe g2e |
def fgf|fgf fgf|gab agf|efe f2e:|
<end>
<start>
